assets/images/icon2.svg

<svg fill="none" height="30" viewBox="0 0 25 30" width="25" xmlns="http://www.w3.org/2000/svg"><g fill="#000"><path d="m6.07422 8.50195h12.74958c-2.1273 4.84105-4.2447 9.66335-6.3831 14.52995-2.1307-4.8588-4.24137-9.68-6.36648-14.52995z"/><path d="m5.97083 7.60747c.4013-1.50099.8015-2.99977 1.2039-4.50298h10.54577c.4002 1.49434.8004 2.99312 1.2017 4.4919-.1364.03769-12.69418.04988-12.95247.01108z"/><path d="m20.445.914841c-.0598.035474-.1053.064297-.153.089789-.7416.39022-1.4854.77822-2.226 1.17065-.1031.05543-.2073.06319-.3192.06319-2.8978 0-5.7967 0-8.69448 0-.64297 0-1.28705.00221-1.93001-.00222-.09423 0-.19844-.01774-.28047-.05986-.76269-.39022-1.52095-.78819-2.28031-1.18395-.03659-.018845-.07206-.043234-.12305-.075382.06873-.032148.11972-.059862.17404-.082033.6208-.257187 1.24159-.51659 1.86571-.7671255.10421-.0421254.22393-.06429667.33701-.06540523 3.75576-.00332569 7.51166-.00332569 11.26746 0 .1008 0 .2095.01441103.3026.05210213.6452.2627296 1.2882.5332196 1.9311.8025996.0388.01552.0754.035474.1286.060971z"/><path d="m24.3659 6.62387c-3.2481 4.55733-6.4962 9.11463-9.7443 13.67083-.01-.0045-.02-.01-.0288-.0144.0288-.071.0576-.1431.0887-.2129.9079-2.0675 1.8169-4.1349 2.7248-6.2024.776-1.7648 1.552-3.5297 2.3236-5.29672.0509-.11529.1175-.18402.235-.23058 1.4156-.55982 2.8279-1.12519 4.2424-1.68834.0444-.01773.0898-.03325.1342-.04877.0077.00776.0155.01662.0233.02438z"/><path d="m10.2178 20.2355c-3.23144-4.5362-6.4629-9.0736-9.694362-13.60981.006651-.00776.014411-.01441.021062-.02217.0388.01219.078708.02328.116399.03769 1.413421.56536 2.826831 1.13295 4.241361 1.69499.1164.04656.18735.11196.23834.22836 1.19503 2.72484 2.39339 5.44744 3.59175 8.17124.48333 1.0986.96555 2.1972 1.44775 3.2957.0266.0599.0499.1209.0754.1818-.0122.0078-.0244.0145-.0366.0222z"/><path d="m3.50195 1.4209c.9456.48666 1.87901.96777 2.8357 1.45998-.40906 1.5276-.81701 3.04854-1.23161 4.5961-1.70386-.67623-3.39331-1.3458-5.10604-2.02535 1.17508-1.35244 2.33463-2.68715 3.50195-4.03073z"/><path d="m21.3894 1.4209c1.164 1.34579 2.3158 2.6794 3.4842 4.03184-1.7049.67844-3.3888 1.34912-5.0883 2.02535-.4113-1.53536-.8181-3.05299-1.2316-4.595.939-.48444 1.8757-.96777 2.8357-1.46219z"/><path d="m21.9347 29.9011v-2.4073c0-.1363-.0197-.2453-.0591-.327-.0363-.0848-.1226-.1272-.2589-.1272h-.0454v-.1363h2.003c.106 0 .1862.0182.2407.0545.0545.0333.0924.0788.1136.1363.0212.0545.0318.112.0318.1726v.3861h-.1363c0-.1938-.0499-.3331-.1499-.4179-.0969-.0848-.2361-.1272-.4178-.1272h-.7313v1.1355h1.1809v.2044h-1.1809v1.2491h.7767c.1665 0 .3073-.0364.4224-.109.1181-.0757.2165-.212.2952-.4088l.1227.0454-.1317.3588c-.0334.0969-.0773.1741-.1318.2317-.0514.0575-.1393.0863-.2634.0863z"/><path d="m19.9747 29.9489-1.0582-2.5117c-.0727-.1696-.1439-.2877-.2135-.3543-.0666-.0696-.1454-.1105-.2362-.1226v-.0909c.0121 0 .0424-.0015.0908-.0045.0455-.003.0788-.0045.1-.0045.1059 0 .2134.0121.3224.0363.1121.0242.2181.0772.318.159.0999.0817.1862.2089.2589.3815l.7176 1.6987.9584-2.2301h.2316l-1.3081 3.0431z"/><path d="m18.0035 29.9011c-.1574 0-.2649-.0409-.3225-.1227-.0575-.0817-.0863-.2377-.0863-.4678v-2.4073h.5905v2.4073c0 .1362.0182.2468.0545.3316.0394.0817.1272.1226.2634.1226h.0454v.1363z"/><path d="m15.9347 29.978c-.1635 0-.324-.0212-.4815-.0636-.1574-.0424-.2876-.1045-.3906-.1862-.1029-.0818-.1544-.1802-.1544-.2953v-.5314h.1272c.0484.3149.1453.539.2907.6723.1483.1332.3497.1998.6041.1998.1726 0 .3103-.0363.4133-.109.106-.0757.159-.1862.159-.3316 0-.1302-.0424-.2377-.1272-.3225-.0818-.0878-.1953-.1756-.3407-.2634l-.5586-.3361c-.2059-.1211-.3513-.2453-.4361-.3725-.0848-.1271-.1272-.274-.1272-.4405 0-.2392.0909-.4285.2726-.5678.1847-.1393.433-.2089.7449-.2089.1665 0 .327.0212.4814.0636.1575.0424.2877.1044.3906.1862.103.0818.1545.1802.1545.2952v.5314h-.1272c-.0515-.3149-.1484-.5389-.2907-.6722-.1423-.1332-.3286-.1998-.5587-.1998-.1635 0-.2937.0393-.3906.1181-.0939.0787-.1408.1862-.1408.3225 0 .1271.0424.2301.1272.3088.0878.0787.2029.1605.3452.2453l.5586.3315c.2059.1212.3558.2408.4497.3589.0969.115.1453.2558.1453.4224 0 .2604-.0984.4663-.2952.6177s-.4784.2271-.8448.2271z"/><path d="m13.1849 29.9465c-.8176 0-1.2263-.4512-1.2263-1.3535v-1.0992c0-.1363-.0197-.2453-.0591-.327-.0363-.0848-.1226-.1272-.2589-.1272v-.1363h.4996c.1605 0 .268.0424.3225.1272.0576.0848.0863.2392.0863.4633l.0046 1.2354c.003.3149.0636.5632.1817.7449.1211.1787.3012.268.5405.268.3088 0 .5329-.0924.6722-.2771.1423-.1847.2134-.4754.2134-.872v-1.6897h.2271v1.6897c0 .2846-.0393.5283-.118.7312-.0757.1999-.2014.3543-.377.4633-.1757.106-.4118.159-.7086.159z"/><path d="m9.6368 29.9011v-2.4073c0-.1363-.01968-.2453-.05905-.327-.03633-.0848-.12263-.1272-.25889-.1272h-.04542v-.1363h.54504c.16048 0 .26802.0424.32252.1272.0575.0848.0863.2392.0863.4633v2.2029h1.567v.2044z"/><path d="m7.7889 29.9919c-.31794 0-.58894-.0681-.81302-.2044-.22407-.1362-.39515-.3209-.51324-.5541-.11507-.2332-.1726-.4951-.1726-.7858 0-.2301.03634-.4436.10901-.6404.0757-.1998.18168-.374.31794-.5223.13626-.1484.29523-.2635.47691-.3452.18168-.0848.38002-.1272.595-.1272.28464 0 .51325.0379.68585.1136.17562.0726.30583.1574.39061.2543.06056.0787.09538.1802.10447.3043.00908.1242.01363.2529.01363.3861h-.13627c-.05753-.2756-.16351-.486-.31794-.6314-.1514-.1483-.35276-.2225-.60409-.2225-.1847 0-.35276.0424-.50416.1272s-.27252.2316-.36336.4405c-.08781.2059-.13172.4936-.13172.863 0 .1726.01817.3392.05451.4996.03633.1605.09386.3044.17259.4315.08176.1272.18471.2271.30886.2998.12718.0727.2816.109.46328.109.20894 0 .40273-.0545.58138-.1635.17866-.112.32249-.274.43149-.486l.15898.1226c-.14232.2514-.31643.4361-.52234.5542-.2059.1181-.46782.1771-.78577.1771z"/><path d="m3.40286 29.9011 1.11734-1.4126-.64497-.9947c-.04845-.0787-.10749-.1544-.17714-.2271-.06964-.0757-.14231-.1378-.21801-.1862-.07268-.0515-.14383-.0803-.21348-.0863v-.0909h.49962c.11507 0 .21802.0258.30886.0772.09387.0515.17714.1151.24981.1908s.13323.1529.18168.2316l.39516.6087.87661-1.1083h.29523l-1.04012 1.3127.71309 1.0946c.05148.0787.11053.1559.17714.2316.06965.0727.14232.1333.21802.1817.0757.0485.14686.0772.21347.0863v.0909h-.49962c-.11204 0-.21499-.0258-.30886-.0773-.09386-.0514-.17713-.115-.24981-.1907-.07267-.0788-.13323-.156-.18168-.2317l-.45874-.7085-.95837 1.2082z"/><path d="m1.03231 29.9011v-2.4073c0-.1363-.01969-.2453-.05905-.327-.036336-.0848-.122634-.1272-.258895-.1272h-.04542v-.1363h2.003025c.10599 0 .18623.0182.24073.0545.05451.0333.09236.0788.11355.1363.0212.0545.0318.112.0318.1726v.3861h-.13626c0-.1938-.04997-.3331-.14989-.4179-.0969-.0848-.23619-.1272-.41787-.1272h-.73126v1.1355h1.18092v.2044h-1.18092v1.2491h.77668c.16654 0 .30735-.0364.42241-.109.11809-.0757.2165-.212.29523-.4088l.12264.0454-.13172.3588c-.03331.0969-.07722.1741-.13172.2317-.05148.0575-.13929.0863-.26344.0863z"/></g></svg>

<svg width="25" height="30" viewBox="0 0 25 30" fill="none" xmlns="http://www.w3.org/2000/svg">
<path d="M6.07422 8.50195H18.8238C16.6965 13.343 14.5791 18.1653 12.4407 23.0319C10.31 18.1731 8.19933 13.3519 6.07422 8.50195Z" fill="black"/>
<path d="M5.97083 7.60747C6.37213 6.10648 6.77233 4.6077 7.17473 3.10449H17.7205C18.1207 4.59883 18.5209 6.09761 18.9222 7.59639C18.7858 7.63408 6.22802 7.64627 5.96973 7.60747H5.97083Z" fill="black"/>
<path d="M20.445 0.914841C20.3852 0.950315 20.3397 0.979138 20.292 1.00463C19.5504 1.39485 18.8066 1.78285 18.066 2.17528C17.9629 2.23071 17.8587 2.23847 17.7468 2.23847C14.849 2.23847 11.9501 2.23847 9.05232 2.23847C8.40935 2.23847 7.76527 2.24068 7.12231 2.23625C7.02808 2.23625 6.92387 2.21851 6.84184 2.17639C6.07915 1.78617 5.32089 1.3882 4.56153 0.99244C4.52494 0.973595 4.48947 0.949206 4.43848 0.917058C4.50721 0.88491 4.5582 0.857196 4.61252 0.835025C5.23332 0.577838 5.85411 0.318435 6.47823 0.0678995C6.58244 0.0257741 6.70216 0.00360283 6.81524 0.00249427C10.571 -0.000831422 14.3269 -0.000831422 18.0827 0.00249427C18.1835 0.00249427 18.2922 0.0169053 18.3853 0.0545964C19.0305 0.317326 19.6735 0.587816 20.3164 0.857196C20.3552 0.872716 20.3918 0.89267 20.445 0.918167V0.914841Z" fill="black"/>
<path d="M24.3659 6.62387C21.1178 11.1812 17.8697 15.7385 14.6216 20.2947C14.6116 20.2902 14.6016 20.2847 14.5928 20.2803C14.6216 20.2093 14.6504 20.1372 14.6815 20.0674C15.5894 17.9999 16.4984 15.9325 17.4063 13.865C18.1823 12.1002 18.9583 10.3353 19.7299 8.56828C19.7808 8.45299 19.8474 8.38426 19.9649 8.3377C21.3805 7.77788 22.7928 7.21251 24.2073 6.64936C24.2517 6.63163 24.2971 6.61611 24.3415 6.60059C24.3492 6.60835 24.357 6.61721 24.3648 6.62497L24.3659 6.62387Z" fill="black"/>
<path d="M10.2178 20.2355C6.98636 15.6993 3.7549 11.1619 0.523438 6.62569C0.530089 6.61793 0.537849 6.61128 0.5445 6.60352C0.5833 6.61571 0.623208 6.6268 0.660899 6.64121C2.07432 7.20657 3.48773 7.77416 4.90226 8.3362C5.01866 8.38276 5.08961 8.44816 5.1406 8.56456C6.33563 11.2894 7.53399 14.012 8.73235 16.7358C9.21568 17.8344 9.6979 18.933 10.1801 20.0315C10.2067 20.0914 10.23 20.1524 10.2555 20.2133C10.2433 20.2211 10.2311 20.2278 10.2189 20.2355H10.2178Z" fill="black"/>
<path d="M3.50195 1.4209C4.44755 1.90756 5.38096 2.38867 6.33765 2.88088C5.92859 4.40848 5.52064 5.92942 5.10604 7.47698C3.40218 6.80075 1.71273 6.13118 0 5.45163C1.17508 4.09919 2.33463 2.76448 3.50195 1.4209Z" fill="black"/>
<path d="M21.3894 1.4209C22.5534 2.76669 23.7052 4.1003 24.8736 5.45274C23.1687 6.13118 21.4848 6.80186 19.7853 7.47809C19.374 5.94273 18.9672 4.4251 18.5537 2.88309C19.4927 2.39865 20.4294 1.91532 21.3894 1.4209Z" fill="black"/>
<path d="M21.9347 29.9011V27.4938C21.9347 27.3575 21.915 27.2485 21.8756 27.1668C21.8393 27.082 21.753 27.0396 21.6167 27.0396H21.5713V26.9033H23.5743C23.6803 26.9033 23.7605 26.9215 23.815 26.9578C23.8695 26.9911 23.9074 27.0366 23.9286 27.0941C23.9498 27.1486 23.9604 27.2061 23.9604 27.2667V27.6528H23.8241C23.8241 27.459 23.7742 27.3197 23.6742 27.2349C23.5773 27.1501 23.4381 27.1077 23.2564 27.1077H22.5251V28.2432H23.706V28.4476H22.5251V29.6967H23.3018C23.4683 29.6967 23.6091 29.6603 23.7242 29.5877C23.8423 29.512 23.9407 29.3757 24.0194 29.1789L24.1421 29.2243L24.0104 29.5831C23.977 29.68 23.9331 29.7572 23.8786 29.8148C23.8272 29.8723 23.7393 29.9011 23.6152 29.9011H21.9347Z" fill="black"/>
<path d="M19.9747 29.9489L18.9165 27.4372C18.8438 27.2676 18.7726 27.1495 18.703 27.0829C18.6364 27.0133 18.5576 26.9724 18.4668 26.9603V26.8694C18.4789 26.8694 18.5092 26.8679 18.5576 26.8649C18.6031 26.8619 18.6364 26.8604 18.6576 26.8604C18.7635 26.8604 18.871 26.8725 18.98 26.8967C19.0921 26.9209 19.1981 26.9739 19.298 27.0557C19.3979 27.1374 19.4842 27.2646 19.5569 27.4372L20.2745 29.1359L21.2329 26.9058H21.4645L20.1564 29.9489H19.9747Z" fill="black"/>
<path d="M18.0035 29.9011C17.8461 29.9011 17.7386 29.8602 17.681 29.7784C17.6235 29.6967 17.5947 29.5407 17.5947 29.3106V26.9033H18.1852V29.3106C18.1852 29.4468 18.2034 29.5574 18.2397 29.6422C18.2791 29.7239 18.3669 29.7648 18.5031 29.7648H18.5485V29.9011H18.0035Z" fill="black"/>
<path d="M15.9347 29.978C15.7712 29.978 15.6107 29.9568 15.4532 29.9144C15.2958 29.872 15.1656 29.8099 15.0626 29.7282C14.9597 29.6464 14.9082 29.548 14.9082 29.4329V28.9015H15.0354C15.0838 29.2164 15.1807 29.4405 15.3261 29.5738C15.4744 29.707 15.6758 29.7736 15.9302 29.7736C16.1028 29.7736 16.2405 29.7373 16.3435 29.6646C16.4495 29.5889 16.5025 29.4784 16.5025 29.333C16.5025 29.2028 16.4601 29.0953 16.3753 29.0105C16.2935 28.9227 16.18 28.8349 16.0346 28.7471L15.476 28.411C15.2701 28.2899 15.1247 28.1657 15.0399 28.0385C14.9551 27.9114 14.9127 27.7645 14.9127 27.598C14.9127 27.3588 15.0036 27.1695 15.1853 27.0302C15.37 26.8909 15.6183 26.8213 15.9302 26.8213C16.0967 26.8213 16.2572 26.8425 16.4116 26.8849C16.5691 26.9273 16.6993 26.9893 16.8022 27.0711C16.9052 27.1529 16.9567 27.2513 16.9567 27.3663V27.8977H16.8295C16.778 27.5828 16.6811 27.3588 16.5388 27.2255C16.3965 27.0923 16.2102 27.0257 15.9801 27.0257C15.8166 27.0257 15.6864 27.065 15.5895 27.1438C15.4956 27.2225 15.4487 27.33 15.4487 27.4663C15.4487 27.5934 15.4911 27.6964 15.5759 27.7751C15.6637 27.8538 15.7788 27.9356 15.9211 28.0204L16.4797 28.3519C16.6856 28.4731 16.8355 28.5927 16.9294 28.7108C17.0263 28.8258 17.0747 28.9666 17.0747 29.1332C17.0747 29.3936 16.9763 29.5995 16.7795 29.7509C16.5827 29.9023 16.3011 29.978 15.9347 29.978Z" fill="black"/>
<path d="M13.1849 29.9465C12.3673 29.9465 11.9586 29.4953 11.9586 28.593V27.4938C11.9586 27.3575 11.9389 27.2485 11.8995 27.1668C11.8632 27.082 11.7769 27.0396 11.6406 27.0396V26.9033H12.1402C12.3007 26.9033 12.4082 26.9457 12.4627 27.0305C12.5203 27.1153 12.549 27.2697 12.549 27.4938L12.5536 28.7292C12.5566 29.0441 12.6172 29.2924 12.7353 29.4741C12.8564 29.6528 13.0365 29.7421 13.2758 29.7421C13.5846 29.7421 13.8087 29.6497 13.948 29.465C14.0903 29.2803 14.1614 28.9896 14.1614 28.593V26.9033H14.3885V28.593C14.3885 28.8776 14.3492 29.1213 14.2705 29.3242C14.1948 29.5241 14.0691 29.6785 13.8935 29.7875C13.7178 29.8935 13.4817 29.9465 13.1849 29.9465Z" fill="black"/>
<path d="M9.6368 29.9011V27.4938C9.6368 27.3575 9.61712 27.2485 9.57775 27.1668C9.54142 27.082 9.45512 27.0396 9.31886 27.0396H9.27344V26.9033H9.81848C9.97896 26.9033 10.0865 26.9457 10.141 27.0305C10.1985 27.1153 10.2273 27.2697 10.2273 27.4938V29.6967H11.7943V29.9011H9.6368Z" fill="black"/>
<path d="M7.7889 29.9919C7.47096 29.9919 7.19996 29.9238 6.97588 29.7875C6.75181 29.6513 6.58073 29.4666 6.46264 29.2334C6.34757 29.0002 6.29004 28.7383 6.29004 28.4476C6.29004 28.2175 6.32638 28.004 6.39905 27.8072C6.47475 27.6074 6.58073 27.4332 6.71699 27.2849C6.85325 27.1365 7.01222 27.0214 7.1939 26.9397C7.37558 26.8549 7.57392 26.8125 7.7889 26.8125C8.07354 26.8125 8.30215 26.8504 8.47475 26.9261C8.65037 26.9987 8.78058 27.0835 8.86536 27.1804C8.92592 27.2591 8.96074 27.3606 8.96983 27.4847C8.97891 27.6089 8.98346 27.7376 8.98346 27.8708H8.84719C8.78966 27.5952 8.68368 27.3848 8.52925 27.2394C8.37785 27.0911 8.17649 27.0169 7.92516 27.0169C7.74046 27.0169 7.5724 27.0593 7.421 27.1441C7.2696 27.2289 7.14848 27.3757 7.05764 27.5846C6.96983 27.7905 6.92592 28.0782 6.92592 28.4476C6.92592 28.6202 6.94409 28.7868 6.98043 28.9472C7.01676 29.1077 7.07429 29.2516 7.15302 29.3787C7.23478 29.5059 7.33773 29.6058 7.46188 29.6785C7.58906 29.7512 7.74348 29.7875 7.92516 29.7875C8.1341 29.7875 8.32789 29.733 8.50654 29.624C8.6852 29.512 8.82903 29.35 8.93803 29.138L9.09701 29.2606C8.95469 29.512 8.78058 29.6967 8.57467 29.8148C8.36877 29.9329 8.10685 29.9919 7.7889 29.9919Z" fill="black"/>
<path d="M3.40286 29.9011L4.5202 28.4885L3.87523 27.4938C3.82678 27.4151 3.76774 27.3394 3.69809 27.2667C3.62845 27.191 3.55578 27.1289 3.48008 27.0805C3.4074 27.029 3.33625 27.0002 3.2666 26.9942V26.9033H3.76622C3.88129 26.9033 3.98424 26.9291 4.07508 26.9805C4.16895 27.032 4.25222 27.0956 4.32489 27.1713C4.39756 27.247 4.45812 27.3242 4.50657 27.4029L4.90173 28.0116L5.77834 26.9033H6.07357L5.03345 28.216L5.74654 29.3106C5.79802 29.3893 5.85707 29.4665 5.92368 29.5422C5.99333 29.6149 6.066 29.6755 6.1417 29.7239C6.2174 29.7724 6.28856 29.8011 6.35517 29.8102V29.9011H5.85555C5.74351 29.9011 5.64056 29.8753 5.54669 29.8238C5.45283 29.7724 5.36956 29.7088 5.29688 29.6331C5.22421 29.5543 5.16365 29.4771 5.1152 29.4014L4.65646 28.6929L3.69809 29.9011H3.40286Z" fill="black"/>
<path d="M1.03231 29.9011V27.4938C1.03231 27.3575 1.01262 27.2485 0.97326 27.1668C0.936924 27.082 0.850626 27.0396 0.714365 27.0396H0.668945V26.9033H2.67197C2.77796 26.9033 2.8582 26.9215 2.9127 26.9578C2.96721 26.9911 3.00506 27.0366 3.02625 27.0941C3.04745 27.1486 3.05805 27.2061 3.05805 27.2667V27.6528H2.92179C2.92179 27.459 2.87182 27.3197 2.7719 27.2349C2.675 27.1501 2.53571 27.1077 2.35403 27.1077H1.62277V28.2432H2.80369V28.4476H1.62277V29.6967H2.39945C2.56599 29.6967 2.7068 29.6603 2.82186 29.5877C2.93995 29.512 3.03836 29.3757 3.11709 29.1789L3.23973 29.2243L3.10801 29.5831C3.0747 29.68 3.03079 29.7572 2.97629 29.8148C2.92481 29.8723 2.837 29.9011 2.71285 29.9011H1.03231Z" fill="black"/>
</svg>
